src/assets/icons/coupon.svg

<svg width="24" height="24" viewBox="0 0 24 24" fill="none" xmlns="http://www.w3.org/2000/svg">
<path fill-rule="evenodd" clip-rule="evenodd" d="M13.6393 3.97168C14.1288 3.97168 14.5257 4.36852 14.5257 4.85804V7.00304C14.5257 7.49257 14.1288 7.88941 13.6393 7.88941C13.1498 7.88941 12.7529 7.49257 12.7529 7.00304V4.85804C12.7529 4.36852 13.1498 3.97168 13.6393 3.97168Z" fill="white"/>
<path fill-rule="evenodd" clip-rule="evenodd" d="M13.6393 15.9463C14.1288 15.9463 14.5257 16.3431 14.5257 16.8327V18.6267C14.5257 19.1162 14.1288 19.513 13.6393 19.513C13.1498 19.513 12.7529 19.1162 12.7529 18.6267V16.8327C12.7529 16.3431 13.1498 15.9463 13.6393 15.9463Z" fill="white"/>
<path fill-rule="evenodd" clip-rule="evenodd" d="M13.6393 8.62793C14.1288 8.62793 14.5257 9.02477 14.5257 9.51429V13.7875C14.5257 14.277 14.1288 14.6738 13.6393 14.6738C13.1498 14.6738 12.7529 14.277 12.7529 13.7875V9.51429C12.7529 9.02477 13.1498 8.62793 13.6393 8.62793Z" fill="white"/>
<path fill-rule="evenodd" clip-rule="evenodd" d="M2.25092 7.52278C2.25111 5.42788 3.96758 3.75 6.0604 3.75H17.9396C20.0324 3.75 21.7489 5.42787 21.7491 7.52277C21.7491 7.52265 21.7491 7.52288 21.7491 7.52277L21.75 9.82158C21.7501 10.0567 21.6568 10.2823 21.4905 10.4486C21.3243 10.6149 21.0988 10.7083 20.8636 10.7083C20.2746 10.7083 19.8207 11.1722 19.8207 11.7282C19.8207 12.2836 20.274 12.7472 20.8636 12.7472C21.3532 12.7472 21.75 13.144 21.75 13.6335V15.9314C21.75 18.0263 20.0346 19.7045 17.9405 19.7045H6.05948C3.96543 19.7045 2.25 18.0263 2.25 15.9314V13.6335C2.25 13.144 2.64684 12.7472 3.13636 12.7472C3.72599 12.7472 4.17933 12.2836 4.17933 11.7282C4.17933 11.2179 3.77297 10.7832 3.13636 10.7832C2.90123 10.7832 2.67572 10.6897 2.50949 10.5234C2.34325 10.3571 2.24991 10.1316 2.25 9.89646L2.25092 7.52278ZM6.0604 5.52273C4.92516 5.52273 4.02365 6.42833 4.02365 7.52312L4.02302 9.14486C5.11937 9.48698 5.95206 10.4546 5.95206 11.7282C5.95206 12.9727 5.14016 14.0131 4.02273 14.3791V15.9314C4.02273 17.0264 4.9235 17.9318 6.05948 17.9318H17.9405C19.0765 17.9318 19.9773 17.0264 19.9773 15.9314V14.3791C18.8598 14.0131 18.0479 12.9727 18.0479 11.7282C18.0479 10.4841 18.8594 9.44295 19.977 9.07652L19.9763 7.52348C19.9763 6.42868 19.0748 5.52273 17.9396 5.52273H6.0604Z" fill="white"/>
</svg>

<svg width="24" height="24" fill="none" xmlns="http://www.w3.org/2000/svg"><path fill-rule="evenodd" clip-rule="evenodd" d="M13.64 3.972c.489 0 .886.397.886.886v2.145a.886.886 0 0 1-1.773 0V4.858c0-.49.397-.886.886-.886M13.64 15.946c.489 0 .886.397.886.887v1.794a.886.886 0 0 1-1.773 0v-1.794c0-.49.397-.887.886-.887M13.64 8.628c.489 0 .886.397.886.886v4.274a.886.886 0 0 1-1.773 0V9.514c0-.49.397-.886.886-.886" fill="#fff"/><path fill-rule="evenodd" clip-rule="evenodd" d="M2.25 7.523C2.252 5.428 3.969 3.75 6.06 3.75h11.88c2.092 0 3.809 1.678 3.81 3.773v2.299a.886.886 0 0 1-.886.886c-.59 0-1.043.464-1.043 1.02s.453 1.02 1.043 1.02c.49 0 .886.396.886.886v2.297c0 2.095-1.715 3.774-3.81 3.774H6.06c-2.095 0-3.81-1.679-3.81-3.774v-2.297c0-.49.397-.887.886-.887.59 0 1.043-.463 1.043-1.019 0-.51-.406-.945-1.043-.945a.886.886 0 0 1-.886-.887zm3.81-2c-1.135 0-2.036.905-2.036 2l-.001 1.622c1.096.342 1.93 1.31 1.93 2.583a2.79 2.79 0 0 1-1.93 2.651v1.552c0 1.095.9 2 2.036 2H17.94c1.136 0 2.037-.905 2.037-2V14.38a2.79 2.79 0 0 1-1.93-2.65 2.79 2.79 0 0 1 1.93-2.652V7.523c0-1.094-.902-2-2.037-2z" fill="#fff"/></svg>
